2 Export/Icons/Brands/Instagram.svg

<svg xmlns="http://www.w3.org/2000/svg" xmlns:xlink="http://www.w3.org/1999/xlink" width="24" height="24" viewBox="0 0 24 24">
  <defs>
    <path id="instagram-a" d="M12,3 C9.555,3 9.24975,3.01125 8.28975,3.054 C7.33125,3.099 6.67875,3.24975 6.105,3.4725 C5.51325,3.702 5.01075,4.01025 4.5105,4.5105 C4.01025,5.01075 3.70125,5.5125 3.4725,6.105 C3.24975,6.67875 3.09825,7.33125 3.054,8.28975 C3.009,9.24975 3,9.555 3,12 C3,14.445 3.01125,14.75025 3.054,15.71025 C3.099,16.668 3.24975,17.32125 3.4725,17.895 C3.702,18.486 4.01025,18.98925 4.5105,19.4895 C5.01075,19.989 5.5125,20.29875 6.105,20.5275 C6.6795,20.7495 7.332,20.90175 8.28975,20.946 C9.24975,20.991 9.555,21 12,21 C14.445,21 14.75025,20.98875 15.71025,20.946 C16.668,20.901 17.32125,20.7495 17.895,20.5275 C18.486,20.298 18.98925,19.989 19.4895,19.4895 C19.989,18.98925 20.29875,18.48825 20.5275,17.895 C20.7495,17.32125 20.90175,16.668 20.946,15.71025 C20.991,14.75025 21,14.445 21,12 C21,9.555 20.98875,9.24975 20.946,8.28975 C20.901,7.332 20.7495,6.678 20.5275,6.105 C20.298,5.51325 19.989,5.01075 19.4895,4.5105 C18.98925,4.01025 18.48825,3.70125 17.895,3.4725 C17.32125,3.24975 16.668,3.09825 15.71025,3.054 C14.75025,3.009 14.445,3 12,3 Z M12,4.62 C14.40225,4.62 14.68875,4.632 15.6375,4.67325 C16.515,4.7145 16.99125,4.86 17.30775,4.9845 C17.72925,5.14725 18.02775,5.34225 18.34425,5.6565 C18.6585,5.9715 18.8535,6.27075 19.01625,6.69225 C19.13925,7.00875 19.28625,7.485 19.326,8.3625 C19.36875,9.312 19.3785,9.597 19.3785,12 C19.3785,14.403 19.36725,14.68875 19.323,15.6375 C19.27725,16.515 19.131,16.99125 19.00725,17.30775 C18.83925,17.72925 18.648,18.02775 18.333,18.34425 C18.01875,18.6585 17.715,18.8535 17.298,19.01625 C16.983,19.13925 16.49925,19.28625 15.62175,19.326 C14.66625,19.36875 14.385,19.3785 11.9775,19.3785 C9.56925,19.3785 9.288,19.36725 8.33325,19.323 C7.455,19.27725 6.97125,19.131 6.65625,19.00725 C6.2295,18.83925 5.93625,18.648 5.622,18.333 C5.30625,18.01875 5.1045,17.715 4.947,17.298 C4.82325,16.983 4.67775,16.49925 4.632,15.62175 C4.59825,14.67675 4.58625,14.385 4.58625,11.98875 C4.58625,9.59175 4.59825,9.29925 4.632,8.343 C4.67775,7.4655 4.82325,6.9825 4.947,6.6675 C5.1045,6.24 5.30625,5.9475 5.622,5.63175 C5.93625,5.3175 6.2295,5.115 6.65625,4.95825 C6.97125,4.83375 7.4445,4.6875 8.322,4.6425 C9.27825,4.60875 9.5595,4.5975 11.96625,4.5975 L12,4.62 L12,4.62 Z M12,7.3785 C9.44625,7.3785 7.3785,9.4485 7.3785,12 C7.3785,14.55375 9.4485,16.6215 12,16.6215 C14.55375,16.6215 16.6215,14.5515 16.6215,12 C16.6215,9.44625 14.5515,7.3785 12,7.3785 Z M12,15 C10.3425,15 9,13.6575 9,12 C9,10.3425 10.3425,9 12,9 C13.6575,9 15,10.3425 15,12 C15,13.6575 13.6575,15 12,15 Z M17.8845,7.19625 C17.8845,7.7925 17.4,8.27625 16.8045,8.27625 C16.20825,8.27625 15.7245,7.79175 15.7245,7.19625 C15.7245,6.60075 16.209,6.11699913 16.8045,6.11699913 C17.39925,6.11625 17.8845,6.60075 17.8845,7.19625 Z"/>
  </defs>
  <g fill="none" fill-rule="evenodd">
    <polygon points="0 0 24 0 24 24 0 24"/>
    <mask id="instagram-b" fill="#fff">
      <use xlink:href="#instagram-a"/>
    </mask>
    <use fill="#000" xlink:href="#instagram-a"/>
    <g fill="#000" mask="url(#instagram-b)">
      <rect width="24" height="24"/>
    </g>
  </g>
</svg>

<svg xmlns="http://www.w3.org/2000/svg" xmlns:xlink="http://www.w3.org/1999/xlink" width="24" height="24" viewBox="0 0 24 24">
  <defs>
    <path id="instagram-a" d="M12 3c-2.445 0-2.75.011-3.71.054-.959.045-1.611.196-2.185.419A4.407 4.407 0 0 0 4.51 4.51c-.5.5-.809 1.002-1.037 1.594-.223.574-.375 1.226-.419 2.185C3.009 9.25 3 9.555 3 12s.011 2.75.054 3.71c.045.958.196 1.611.419 2.185a4.405 4.405 0 0 0 1.038 1.595c.5.499 1.002.809 1.594 1.038.574.222 1.227.374 2.185.418.96.045 1.265.054 3.71.054 2.445 0 2.75-.011 3.71-.054.958-.045 1.611-.197 2.185-.419a4.424 4.424 0 0 0 1.595-1.038c.499-.5.809-1 1.038-1.594.222-.574.374-1.227.418-2.185.045-.96.054-1.265.054-3.71 0-2.445-.011-2.75-.054-3.71-.045-.958-.197-1.612-.419-2.185A4.417 4.417 0 0 0 19.49 4.51c-.5-.5-1-.809-1.594-1.037-.574-.223-1.227-.375-2.185-.419C14.75 3.009 14.445 3 12 3zm0 1.62c2.402 0 2.689.012 3.637.053.878.042 1.354.187 1.67.311.422.163.72.358 1.037.673.314.314.51.614.672 1.035.123.317.27.793.31 1.67.043.95.052 1.235.052 3.638 0 2.403-.01 2.689-.055 3.637-.046.878-.192 1.354-.316 1.67-.168.422-.359.72-.674 1.037a2.8 2.8 0 0 1-1.035.672c-.315.123-.799.27-1.676.31-.956.043-1.237.052-3.645.052s-2.689-.01-3.644-.055c-.878-.046-1.362-.192-1.677-.316a2.787 2.787 0 0 1-1.034-.674 2.733 2.733 0 0 1-.675-1.035c-.124-.315-.27-.799-.315-1.676-.034-.945-.046-1.237-.046-3.633 0-2.397.012-2.69.046-3.646.046-.878.191-1.36.315-1.675.157-.428.36-.72.675-1.036a2.662 2.662 0 0 1 1.034-.674c.315-.124.788-.27 1.666-.316.956-.033 1.238-.045 3.644-.045L12 4.62zm0 2.758a4.621 4.621 0 1 0 0 9.243 4.621 4.621 0 0 0 0-9.242zM12 15a3 3 0 1 1 0-6 3 3 0 1 1 0 6zm5.884-7.804a1.08 1.08 0 0 1-2.16 0 1.08 1.08 0 0 1 2.16 0z"/>
  </defs>
  <g fill="none" fill-rule="evenodd">
    <polygon points="0 0 24 0 24 24 0 24"/>
    <mask id="instagram-b" fill="#fff">
      <use xlink:href="#instagram-a"/>
    </mask>
    <use fill="#000" xlink:href="#instagram-a"/>
    <g fill="#000" mask="url(#instagram-b)">
      <rect width="24" height="24"/>
    </g>
  </g>
</svg>
